assets/img/icons/duotone-icons/Cooking/Cooking-pot.svg

<?xml version="1.0" encoding="UTF-8"?>
<svg width="24px" height="24px" viewBox="0 0 24 24" version="1.1" xmlns="http://www.w3.org/2000/svg" xmlns:xlink="http://www.w3.org/1999/xlink">
    <!-- Generator: Sketch 52.2 (67145) - http://www.bohemiancoding.com/sketch -->
    <title>Stockholm-icons / Cooking / Cooking-pot</title>
    <desc>Created with Sketch.</desc>
    <g id="Stockholm-icons-/-Cooking-/-Cooking-pot" stroke="none" stroke-width="1" fill="none" fill-rule="evenodd">
        <rect id="bound" x="0" y="0" width="24" height="24"></rect>
        <path d="M10,6 L10,5 C10,4.44771525 10.4477153,4 11,4 L13,4 C13.5522847,4 14,4.44771525 14,5 L14,6 L14.383822,6 C16.2072694,6 18.0148165,6.33909803 19.7142779,7 L19.8017005,7.03399769 C20.0590665,7.1340845 20.1865664,7.42385724 20.0864796,7.6812232 C20.0117407,7.87340889 19.8266841,8 19.6204773,8 L4.37951429,8 C4.10337192,8 3.87951429,7.77614237 3.87951429,7.5 C3.87951429,7.2937932 4.0061054,7.10873661 4.19829109,7.03399769 L4.28571369,7 C5.98517509,6.33909803 7.79272222,6 9.61616964,6 L10,6 Z M20,11 L22,11 C22.5522847,11 23,11.4477153 23,12 C23,12.5522847 22.5522847,13 22,13 L20,13 C19.4477153,13 19,12.5522847 19,12 C19,11.4477153 19.4477153,11 20,11 Z M2,11 L4,11 C4.55228475,11 5,11.4477153 5,12 C5,12.5522847 4.55228475,13 4,13 L2,13 C1.44771525,13 1,12.5522847 1,12 C1,11.4477153 1.44771525,11 2,11 Z" id="Combined-Shape" fill="#335EEA" opacity="0.3"></path>
        <path d="M5,9 L19,9 C19.5522847,9 20,9.44771525 20,10 L20,17 C20,19.209139 18.209139,21 16,21 L8,21 C5.790861,21 4,19.209139 4,17 L4,10 C4,9.44771525 4.44771525,9 5,9 Z" id="Rectangle-203" fill="#335EEA"></path>
    </g>
</svg>

<svg width="24" height="24" viewBox="0 0 24 24" xmlns="http://www.w3.org/2000/svg"><g fill="none" fill-rule="evenodd"><path d="M0 0h24v24H0z"/><path d="M10 6V5a1 1 0 011-1h2a1 1 0 011 1v1h.384c1.823 0 3.63.34 5.33 1l.088.034A.5.5 0 0119.62 8H4.38a.5.5 0 01-.182-.966L4.286 7c1.7-.66 3.507-1 5.33-1H10zm10 5h2a1 1 0 010 2h-2a1 1 0 010-2zM2 11h2a1 1 0 010 2H2a1 1 0 010-2z" fill="#335EEA" opacity=".3"/><path d="M5 9h14a1 1 0 011 1v7a4 4 0 01-4 4H8a4 4 0 01-4-4v-7a1 1 0 011-1z" fill="#335EEA"/></g></svg>
